X:1
T:Rose in the Mountain
M:2/4
L:1/8
R:Reel
N:Transcribed by John Hartford from the playing of Ky. fiddler 
N:John Salyer, via Bruce Molsky.
B:Stephen F. Davis - Devil's Box, vol. 33, No. 3, Fall 1999 (p. 52)
Z:AK/Fiddler's Companion
K:D
DD/F/ Ad|A/B/A/F/ DA,|DF/G/ A/B/d/e/|fd e2|
DD/F/ A/B/d/e/|f/g/f/e/ dA|B/c/d/c/ B/A/F/G/|AA, D:|
e/g/||fd e/de/|fd e>g|fd e/de/|fd e2|e/f/g/e/ fd|
A/B/d/e/ f/g/f/e/|dA B/c/d/c/|B/A/F/G/ AA,|D3||

